X:236
M:4/4
L:1/4
K:G
G F/E/ D G | A G/A/ B G | c B/A/ B A/G/ | F/G/ A/F/ G2 | G F/E/ D G | A G/A/ B G | c B/A/ B A/G/ | F/G/ A/F/ G2 | G A/B/ c B | A ^G A A | A B/c/ d G | A G/F/ (E D) | G F/E/ D G | A G/A/ B G | !sintro!c B/A/ B A/G/ | F/G/ A/F/ G2 !eintro!|]
